X:1
T:Marie Jeanne Gabrielle
C:Louis Capart, fichier abc : Bernard Loffet
L:1/8
Q:310
K:C
M:3/4
|: [c2C,,2] [G2C,2] [c2C,2] | [dG,,]c [d2G,2] [cG,]d | [eA,,]d [c2A,2] [E2A,2] | [F2F,,2] F,A [GF,]F | \
 [GC,,]E [CC,]c [BC,]c | [dG,,]B [G2G,2] [cG,]B | [c2C,,2] C,G [FF,]E | [C2C,,2] C,2 C,2 :| [c2A,,2] [A2A,2] [c2A,2] | \
 [B2E,,2] E,2 [AA,]B | [c2A,,2] [A2A,2] [c2A,2] | [B2E,,2] E,2 [AA,]B | [c2A,,2] [A2A,2] [c2A,2] | \
 [c2A,,2] [A2A,2] [c2A,2] | [d2G,,2] G,2 G,2 | G,,2 G,2 [cG,]d | [e2C,,2] [d2C,2] [c2C,2] | \
 [dG,,]B [G2G,2] [AG,]B | [c2A,,2] [B2A,2] [A2A,2] | [BE,,]G [E2E,2] [FF,]G | [A2F,,2] [G2F,2] [F2F,2] | \
 [GC,,]E [C2C,2] C,2 | [c2C,,2] [B2C,2] [c2C,2] | [d2G,,2] G,2 [cG,]d | [e2C,,2] [d2C,2] [c2C,2] | \
 [dG,,]B [G2G,2] [B2G,2] | [c2A,,2] [B2A,2] [A2A,2] | [BE,,]G [E2E,2] [FF,]G | [A2F,,2] [G2F,2] [F2F,2] | \
 [G2C,,2] [E2C,2] [C2C,2] | [c2C,,2] [B2C,2] [c2C,2] | [d2G,,2] G,2 [c2G,2] | [c2C,,2] C,2 C,2 | \
 C,,2 C,2 C,2 | \
W:Created with TablEdit http://www.tabledit.com/ by Bernard Loffet
